X:1
T:[ID 11-11a]
T:[ID 11-11a]
T:Bezeichnung standardisiert: Menuett Menuet
T:Urheber unbekannt Datum in der hier transkribierten schriftlichen Quelle: vermutlich um 1800
C:Urheber unbekannt
C:Datum in der hier transkribierten schriftlichen Quelle: vermutlich um 1800
L:1/8
M:3/4
K:D
V:1 treble nm="Viol. 2do"
V:1
 F2 d2 f2 | e2 ce d2 | f2 f2 f2 | e2 ce d2 | cd e2 e2 | de f2 f2 | f2 e2 d2 | d2 c4 :: C2 A2 c2 | %9
 E2 DE C2 | e2 d2 c2 | AGFE F2 | cd e2 e2 | de f2 f2 | f2 d2 ec | G2 F4 :| %16

